my-site/themes/moving-test/assets/images/Group 1597878739.svg

<svg width="20" height="20" viewBox="0 0 20 20" fill="none" xmlns="http://www.w3.org/2000/svg">
<path d="M9.14453 19.5559C9.38625 19.7028 9.62605 19.8316 9.86523 19.9417C9.62604 19.8316 9.38626 19.7028 9.14453 19.5559ZM5.87695 7.14868L5.57422 7.45239L5.57227 7.45435C4.95271 8.07639 4.9485 9.08897 5.57422 9.71509L9.60059 13.7424H9.60156C10.2251 14.3655 11.2406 14.366 11.8643 13.7424L12.167 13.4387L15.6934 16.9641C14.6906 17.863 13.8923 18.3951 13.1943 18.6946C12.402 19.0343 11.7002 19.0844 10.9805 18.8713H10.9795C10.2902 18.6671 9.52125 18.2023 8.55566 17.3958C7.59096 16.5899 6.53535 15.5356 5.23926 14.2395C3.93527 12.9354 2.84493 11.8542 2 10.8547C1.15219 9.85183 0.656099 9.04807 0.445312 8.33618C0.237332 7.63329 0.273863 6.93438 0.62207 6.12231C0.921707 5.42421 1.45259 4.62497 2.35156 3.62231L5.87695 7.14868ZM6.46777 17.4075C6.05607 17.0205 5.62854 16.6014 5.17871 16.1555C5.62854 16.6014 6.05607 17.0205 6.46777 17.4075ZM12.2852 11.7249C12.2465 11.7174 12.2072 11.7141 12.168 11.7141C12.2072 11.7141 12.2465 11.7174 12.2852 11.7249ZM0.310547 10.9807V10.9797V10.9807ZM6.52051 8.65942V8.6604V8.65942ZM0 4.35278H0.000976562H0Z" fill="white"/>
<path d="M14.9473 9.41482C14.9473 9.40633 14.9392 9.35752 14.9245 9.27657C14.4845 6.84207 12.5264 4.96791 10.0872 4.55469" stroke="white" stroke-width="1.5"/>
<path d="M18.7628 8.37167C18.7628 8.35834 18.75 8.2817 18.7271 8.15457C18.036 4.33152 14.961 1.38841 11.1306 0.739502" stroke="white" stroke-width="1.5"/>
</svg>

<svg xmlns="http://www.w3.org/2000/svg" width="20" height="20" fill="none" viewBox="0 0 20 20"><path fill="#fff" d="m5.877 7.149-.303.303-.002.002a1.6 1.6 0 0 0 .002 2.261l4.027 4.027a1.603 1.603 0 0 0 2.263 0l.303-.303 3.526 3.525c-1.002.899-1.8 1.431-2.499 1.73-.792.34-1.494.39-2.214.177-.69-.204-1.459-.669-2.424-1.475s-2.02-1.86-3.317-3.157C3.935 12.936 2.845 11.855 2 10.856 1.152 9.852.656 9.048.445 8.336.237 7.633.274 6.934.622 6.122c.3-.698.83-1.497 1.73-2.5zM.31 10.98v-.001m6.21-2.322v.001M0 4.353z"/><path stroke="#fff" stroke-width="1.5" d="M14.947 9.415q0-.015-.022-.138c-.44-2.435-2.399-4.31-4.838-4.722M18.763 8.372c0-.014-.013-.09-.036-.217-.691-3.823-3.766-6.767-7.596-7.415"/></svg>
